austria/municipalities/31827.svg

<?xml version="1.0" encoding="UTF-8"?>
<!DOCTYPE svg PUBLIC "-//W3C//DTD SVG 1.1//EN" "http://www.w3.org/Graphics/SVG/1.1/DTD/svg11.dtd">
<svg xmlns="http://www.w3.org/2000/svg" version="1.1" width="96px" height="103px" style="shape-rendering:geometricPrecision; text-rendering:geometricPrecision; image-rendering:optimizeQuality; fill-rule:evenodd; clip-rule:evenodd" xmlns:xlink="http://www.w3.org/1999/xlink">
<g><path style="opacity:1" fill="#fefefe" d="M -0.5,-0.5 C 31.5,-0.5 63.5,-0.5 95.5,-0.5C 95.5,33.8333 95.5,68.1667 95.5,102.5C 63.5,102.5 31.5,102.5 -0.5,102.5C -0.5,68.1667 -0.5,33.8333 -0.5,-0.5 Z"/></g>
<g><path style="opacity:1" fill="#131b1c" d="M 2.5,3.5 C 32.1667,3.5 61.8333,3.5 91.5,3.5C 91.6666,17.8372 91.4999,32.1705 91,46.5C 86.954,72.7005 72.1207,90.7005 46.5,100.5C 18.8658,89.0348 4.36581,68.3681 3,38.5C 2.50014,26.8381 2.33347,15.1714 2.5,3.5 Z"/></g>
<g><path style="opacity:1" fill="#f8f8f7" d="M 89.5,19.5 C 84.2186,10.1122 76.7186,7.77883 67,12.5C 64.2071,10.7088 61.2071,9.37549 58,8.5C 54.9118,10.5711 51.5785,12.2378 48,13.5C 42.7394,10.2546 37.0728,7.92127 31,6.5C 26.3925,7.72117 22.2258,9.88783 18.5,13C 13.9645,17.7033 9.29788,22.2033 4.5,26.5C 4.5,19.5 4.5,12.5 4.5,5.5C 32.8333,5.5 61.1667,5.5 89.5,5.5C 89.5,10.1667 89.5,14.8333 89.5,19.5 Z"/></g>
<g><path style="opacity:1" fill="#096336" d="M 89.5,19.5 C 89.4432,28.5432 89.4432,37.3765 89.5,46C 88.8064,49.0249 87.8064,51.8582 86.5,54.5C 85.5,54.5 84.5,54.5 83.5,54.5C 82.5489,55.9187 82.2155,57.5853 82.5,59.5C 80.8333,59.5 79.1667,59.5 77.5,59.5C 77.7845,57.5853 77.4511,55.9187 76.5,54.5C 74.1667,54.5 71.8333,54.5 69.5,54.5C 69.5,56.1667 69.5,57.8333 69.5,59.5C 67.8333,59.5 66.1667,59.5 64.5,59.5C 64.5,57.8333 64.5,56.1667 64.5,54.5C 61.8333,54.5 59.1667,54.5 56.5,54.5C 56.5,56.1667 56.5,57.8333 56.5,59.5C 54.5,59.5 52.5,59.5 50.5,59.5C 50.5,57.8333 50.5,56.1667 50.5,54.5C 48.1667,54.5 45.8333,54.5 43.5,54.5C 43.5,56.1667 43.5,57.8333 43.5,59.5C 41.5,59.5 39.5,59.5 37.5,59.5C 37.5,57.8333 37.5,56.1667 37.5,54.5C 35.1667,54.5 32.8333,54.5 30.5,54.5C 30.938,58.9083 28.938,60.5749 24.5,59.5C 24.5,57.8333 24.5,56.1667 24.5,54.5C 21.8333,54.5 19.1667,54.5 16.5,54.5C 16.5,56.1667 16.5,57.8333 16.5,59.5C 14.8333,59.5 13.1667,59.5 11.5,59.5C 11.5,57.8333 11.5,56.1667 11.5,54.5C 9.90097,54.2322 8.56764,54.5655 7.5,55.5C 4.98194,46.1345 3.98194,36.4678 4.5,26.5C 9.29788,22.2033 13.9645,17.7033 18.5,13C 22.2258,9.88783 26.3925,7.72117 31,6.5C 37.0728,7.92127 42.7394,10.2546 48,13.5C 51.5785,12.2378 54.9118,10.5711 58,8.5C 61.2071,9.37549 64.2071,10.7088 67,12.5C 76.7186,7.77883 84.2186,10.1122 89.5,19.5 Z"/></g>
<g><path style="opacity:1" fill="#cc9f02" d="M 48.5,34.5 C 42.5264,37.4876 36.8597,40.9876 31.5,45C 34.2277,45.6389 34.7277,46.8056 33,48.5C 31.4157,47.1387 29.5824,46.472 27.5,46.5C 27.3896,43.9412 28.0562,41.6079 29.5,39.5C 30.2508,40.376 30.7508,41.376 31,42.5C 35.931,40.055 40.431,37.055 44.5,33.5C 41.5262,30.3718 37.8595,28.8718 33.5,29C 31.6549,27.5771 29.6549,26.4104 27.5,25.5C 29.0737,24.0158 30.407,22.3492 31.5,20.5C 35.3079,22.4745 38.3079,25.3078 40.5,29C 42.579,30.6398 44.9124,31.8064 47.5,32.5C 51.8946,30.8185 55.2279,27.9851 57.5,24C 59.5873,23.2078 61.4207,22.0412 63,20.5C 64.541,22.477 65.041,24.477 64.5,26.5C 62.5,27.8333 60.5,29.1667 58.5,30.5C 57.2322,29.5721 55.8989,29.4054 54.5,30C 52.3162,31.3634 50.3162,32.8634 48.5,34.5 Z"/></g>
<g><path style="opacity:1" fill="#e3af00" d="M 48.5,34.5 C 52.6829,36.0875 56.3495,38.4208 59.5,41.5C 54.9827,40.2817 51.3161,37.9484 48.5,34.5 Z"/></g>
<g><path style="opacity:1" fill="#dcaa01" d="M 59.5,41.5 C 61.1703,41.7512 62.6703,42.4178 64,43.5C 63.7374,42.0494 63.9041,40.7161 64.5,39.5C 65.2766,41.7812 66.2766,43.9479 67.5,46C 64.9999,46.3747 62.6666,47.2081 60.5,48.5C 59.479,47.9984 59.3123,47.3317 60,46.5C 61.0674,45.8095 62.2341,45.3095 63.5,45C 61.6763,44.34 60.343,43.1733 59.5,41.5 Z"/></g>
<g><path style="opacity:1" fill="#edeeed" d="M 11.5,59.5 C 13.2646,60.4614 15.2646,60.7947 17.5,60.5C 17.5,59.1667 17.5,57.8333 17.5,56.5C 19.5,56.5 21.5,56.5 23.5,56.5C 23.2627,57.791 23.596,58.791 24.5,59.5C 28.938,60.5749 30.938,58.9083 30.5,54.5C 32.8333,54.5 35.1667,54.5 37.5,54.5C 37.5,56.1667 37.5,57.8333 37.5,59.5C 39.5,59.5 41.5,59.5 43.5,59.5C 43.5,57.8333 43.5,56.1667 43.5,54.5C 45.8333,54.5 48.1667,54.5 50.5,54.5C 50.5,56.1667 50.5,57.8333 50.5,59.5C 52.5,59.5 54.5,59.5 56.5,59.5C 57.404,58.791 57.7373,57.791 57.5,56.5C 59.5,56.5 61.5,56.5 63.5,56.5C 63.5,57.8333 63.5,59.1667 63.5,60.5C 65.7354,60.7947 67.7354,60.4614 69.5,59.5C 69.5,57.8333 69.5,56.1667 69.5,54.5C 71.8333,54.5 74.1667,54.5 76.5,54.5C 76.5,56.5 76.5,58.5 76.5,60.5C 78.8333,60.5 81.1667,60.5 83.5,60.5C 83.5,58.5 83.5,56.5 83.5,54.5C 84.5,54.5 85.5,54.5 86.5,54.5C 86.4403,57.3408 85.7736,60.0075 84.5,62.5C 59.5,62.5 34.5,62.5 9.5,62.5C 8.43363,60.2986 7.76697,57.9653 7.5,55.5C 8.56764,54.5655 9.90097,54.2322 11.5,54.5C 11.5,56.1667 11.5,57.8333 11.5,59.5 Z"/></g>
<g><path style="opacity:1" fill="#b7bab9" d="M 69.5,59.5 C 67.7354,60.4614 65.7354,60.7947 63.5,60.5C 63.5,59.1667 63.5,57.8333 63.5,56.5C 61.5,56.5 59.5,56.5 57.5,56.5C 57.7373,57.791 57.404,58.791 56.5,59.5C 56.5,57.8333 56.5,56.1667 56.5,54.5C 59.1667,54.5 61.8333,54.5 64.5,54.5C 64.5,56.1667 64.5,57.8333 64.5,59.5C 66.1667,59.5 67.8333,59.5 69.5,59.5 Z"/></g>
<g><path style="opacity:1" fill="#b7baba" d="M 24.5,59.5 C 23.596,58.791 23.2627,57.791 23.5,56.5C 21.5,56.5 19.5,56.5 17.5,56.5C 17.5,57.8333 17.5,59.1667 17.5,60.5C 15.2646,60.7947 13.2646,60.4614 11.5,59.5C 13.1667,59.5 14.8333,59.5 16.5,59.5C 16.5,57.8333 16.5,56.1667 16.5,54.5C 19.1667,54.5 21.8333,54.5 24.5,54.5C 24.5,56.1667 24.5,57.8333 24.5,59.5 Z"/></g>
<g><path style="opacity:1" fill="#8c9b98" d="M 76.5,54.5 C 77.4511,55.9187 77.7845,57.5853 77.5,59.5C 79.1667,59.5 80.8333,59.5 82.5,59.5C 82.2155,57.5853 82.5489,55.9187 83.5,54.5C 83.5,56.5 83.5,58.5 83.5,60.5C 81.1667,60.5 78.8333,60.5 76.5,60.5C 76.5,58.5 76.5,56.5 76.5,54.5 Z"/></g>
<g><path style="opacity:1" fill="#bdbebe" d="M 9.5,62.5 C 34.5,62.5 59.5,62.5 84.5,62.5C 84.2041,64.403 83.5375,66.0697 82.5,67.5C 71.0194,66.1676 59.1861,65.501 47,65.5C 34.9952,65.5001 23.1619,65.8335 11.5,66.5C 10.3263,65.4863 9.6596,64.153 9.5,62.5 Z"/></g>
<g><path style="opacity:1" fill="#fefefe" d="M 82.5,67.5 C 58.8333,67.5 35.1667,67.5 11.5,67.5C 11.5,67.1667 11.5,66.8333 11.5,66.5C 23.1619,65.8335 34.9952,65.5001 47,65.5C 59.1861,65.501 71.0194,66.1676 82.5,67.5 Z"/></g>
<g><path style="opacity:1" fill="#18538d" d="M 11.5,67.5 C 35.1667,67.5 58.8333,67.5 82.5,67.5C 78.8423,74.3384 74.1756,80.5051 68.5,86C 61.7545,91.1254 54.5878,95.6254 47,99.5C 31.5069,92.8376 19.6735,82.171 11.5,67.5 Z"/></g>
<g><path style="opacity:1" fill="#485b5a" d="M 37.5,71.5 C 36.1667,71.5 34.8333,71.5 33.5,71.5C 33.5,72.8333 33.5,74.1667 33.5,75.5C 32.5489,74.0813 32.2155,72.4147 32.5,70.5C 34.4147,70.2155 36.0813,70.5489 37.5,71.5 Z"/></g>
<g><path style="opacity:1" fill="#61777b" d="M 56.5,71.5 C 57.9187,70.5489 59.5853,70.2155 61.5,70.5C 61.7845,72.4147 61.4511,74.0813 60.5,75.5C 60.5,74.1667 60.5,72.8333 60.5,71.5C 59.1667,71.5 57.8333,71.5 56.5,71.5 Z"/></g>
<g><path style="opacity:1" fill="#f9f9f8" d="M 37.5,71.5 C 43.8333,71.5 50.1667,71.5 56.5,71.5C 57.8333,71.5 59.1667,71.5 60.5,71.5C 60.5,72.8333 60.5,74.1667 60.5,75.5C 60.1667,75.5 59.8333,75.5 59.5,75.5C 56.3752,74.5206 53.0419,74.1872 49.5,74.5C 49.5,75.8333 49.5,77.1667 49.5,78.5C 49.5,82.8333 49.5,87.1667 49.5,91.5C 49.5,92.5 49.5,93.5 49.5,94.5C 47.2188,94.9227 45.5521,94.256 44.5,92.5C 44.5,86.5 44.5,80.5 44.5,74.5C 40.7307,74.244 37.0641,74.5773 33.5,75.5C 33.5,74.1667 33.5,72.8333 33.5,71.5C 34.8333,71.5 36.1667,71.5 37.5,71.5 Z"/></g>
<g><path style="opacity:1" fill="#6d7c83" d="M 59.5,75.5 C 56.5,75.5 53.5,75.5 50.5,75.5C 50.7373,76.791 50.404,77.791 49.5,78.5C 49.5,77.1667 49.5,75.8333 49.5,74.5C 53.0419,74.1872 56.3752,74.5206 59.5,75.5 Z"/></g>
<g><path style="opacity:1" fill="#5f737a" d="M 49.5,91.5 C 50.4345,92.5676 50.7678,93.901 50.5,95.5C 48.1667,95.5 45.8333,95.5 43.5,95.5C 43.2627,94.209 43.596,93.209 44.5,92.5C 45.5521,94.256 47.2188,94.9227 49.5,94.5C 49.5,93.5 49.5,92.5 49.5,91.5 Z"/></g>
</svg>

<svg xmlns="http://www.w3.org/2000/svg" width="96" height="103" style="shape-rendering:geometricPrecision;text-rendering:geometricPrecision;image-rendering:optimizeQuality;fill-rule:evenodd;clip-rule:evenodd"><path style="opacity:1" fill="#fefefe" d="M-.5-.5h96v103h-96V-.5z"/><path style="opacity:1" fill="#131b1c" d="M2.5 3.5h89c.167 14.337 0 28.67-.5 43-4.046 26.2-18.88 44.2-44.5 54C18.866 89.035 4.366 68.368 3 38.5a612.942 612.942 0 0 1-.5-35z"/><path style="opacity:1" fill="#f8f8f7" d="M89.5 19.5c-5.281-9.388-12.781-11.721-22.5-7a32.36 32.36 0 0 0-9-4 44.372 44.372 0 0 1-10 5 56.82 56.82 0 0 0-17-7c-4.608 1.221-8.774 3.388-12.5 6.5a265.627 265.627 0 0 1-14 13.5v-21h85v14z"/><path style="opacity:1" fill="#096336" d="M89.5 19.5c-.057 9.043-.057 17.877 0 26.5-.694 3.025-1.694 5.858-3 8.5h-3c-.951 1.419-1.284 3.085-1 5h-5c.284-1.915-.049-3.581-1-5h-7v5h-5v-5h-8v5h-6v-5h-7v5h-6v-5h-7c.438 4.408-1.562 6.075-6 5v-5h-8v5h-5v-5c-1.599-.268-2.932.066-4 1-2.518-9.365-3.518-19.032-3-29a265.627 265.627 0 0 0 14-13.5c3.726-3.112 7.892-5.279 12.5-6.5a56.82 56.82 0 0 1 17 7 44.372 44.372 0 0 0 10-5 32.36 32.36 0 0 1 9 4c9.719-4.721 17.219-2.388 22.5 7z"/><path style="opacity:1" fill="#cc9f02" d="M48.5 34.5a111.638 111.638 0 0 0-17 10.5c2.728.639 3.228 1.806 1.5 3.5-1.584-1.361-3.418-2.028-5.5-2-.11-2.559.556-4.892 2-7a6.807 6.807 0 0 1 1.5 3 62.863 62.863 0 0 0 13.5-9c-2.974-3.128-6.64-4.628-11-4.5a26.972 26.972 0 0 0-6-3.5 22.763 22.763 0 0 0 4-5c3.808 1.974 6.808 4.808 9 8.5a19.215 19.215 0 0 0 7 3.5c4.395-1.681 7.728-4.515 10-8.5a15.83 15.83 0 0 0 5.5-3.5c1.541 1.977 2.041 3.977 1.5 6l-6 4c-1.268-.928-2.601-1.095-4-.5a42.774 42.774 0 0 0-6 4.5z"/><path style="opacity:1" fill="#e3af00" d="M48.5 34.5c4.183 1.587 7.85 3.92 11 7-4.517-1.218-8.184-3.552-11-7z"/><path style="opacity:1" fill="#dcaa01" d="M59.5 41.5c1.67.251 3.17.918 4.5 2-.263-1.45-.096-2.784.5-4a34.146 34.146 0 0 0 3 6.5 19.054 19.054 0 0 0-7 2.5c-1.021-.502-1.188-1.168-.5-2a11.362 11.362 0 0 1 3.5-1.5c-1.824-.66-3.157-1.827-4-3.5z"/><path style="opacity:1" fill="#edeeed" d="M11.5 59.5c1.765.961 3.765 1.295 6 1v-4h6c-.237 1.291.096 2.291 1 3 4.438 1.075 6.438-.592 6-5h7v5h6v-5h7v5h6c.904-.709 1.237-1.709 1-3h6v4c2.235.295 4.235-.039 6-1v-5h7v6h7v-6h3c-.06 2.84-.726 5.508-2 8h-75a21.16 21.16 0 0 1-2-7c1.068-.934 2.401-1.268 4-1v5z"/><path style="opacity:1" fill="#b7bab9" d="M69.5 59.5c-1.765.961-3.765 1.295-6 1v-4h-6c.237 1.291-.096 2.291-1 3v-5h8v5h5z"/><path style="opacity:1" fill="#b7baba" d="M24.5 59.5c-.904-.709-1.237-1.709-1-3h-6v4c-2.235.295-4.235-.039-6-1h5v-5h8v5z"/><path style="opacity:1" fill="#8c9b98" d="M76.5 54.5c.951 1.419 1.284 3.085 1 5h5c-.284-1.915.049-3.581 1-5v6h-7v-6z"/><path style="opacity:1" fill="#bdbebe" d="M9.5 62.5h75c-.296 1.903-.963 3.57-2 5-11.48-1.332-23.314-1.999-35.5-2-12.005 0-23.838.334-35.5 1-1.174-1.014-1.84-2.347-2-4z"/><path style="opacity:1" fill="#fefefe" d="M82.5 67.5h-71v-1c11.662-.666 23.495-1 35.5-1 12.186.001 24.02.668 35.5 2z"/><path style="opacity:1" fill="#18538d" d="M11.5 67.5h71c-3.658 6.838-8.324 13.005-14 18.5A142.82 142.82 0 0 1 47 99.5c-15.493-6.662-27.326-17.329-35.5-32z"/><path style="opacity:1" fill="#485b5a" d="M37.5 71.5h-4v4c-.951-1.419-1.285-3.085-1-5 1.915-.284 3.581.049 5 1z"/><path style="opacity:1" fill="#61777b" d="M56.5 71.5c1.419-.951 3.085-1.284 5-1 .285 1.915-.049 3.581-1 5v-4h-4z"/><path style="opacity:1" fill="#f9f9f8" d="M37.5 71.5h23v4h-1c-3.125-.98-6.458-1.313-10-1v20c-2.281.423-3.948-.244-5-2v-18c-3.77-.256-7.436.077-11 1v-4h4z"/><path style="opacity:1" fill="#6d7c83" d="M59.5 75.5h-9c.237 1.291-.096 2.291-1 3v-4c3.542-.313 6.875.02 10 1z"/><path style="opacity:1" fill="#5f737a" d="M49.5 91.5c.934 1.068 1.268 2.401 1 4h-7c-.237-1.291.096-2.291 1-3 1.052 1.756 2.719 2.423 5 2v-3z"/></svg>
